X: 21181
T: THE DUKE OF GORDON'S STRATHSPEY
R: strathspey
B: K\"ohler's Violin Repository, v.2, 1885 p.118 #1
F: http://www.archive.org/details/klersviolinrepos02rugg
Z: 2012 John Chambers <jc:trillian.mit.edu>
M: C|
L: 1/16
K: E
uB,2 |\
(.E3.G)(B3G) (.E3.B)(e3G) | Bb3(g3e) (f3e)f3g |\
(.E3.G)(B3G) [1 (.B3.e)(g3e) | (.f3.e)(g3f) ee3 [e2B2] :|[2 (.E3.G)(E3B,) | (.C3.c)(B3G) EE3 [E3B,2] |]
(uga) |\
(.b3.e)(g3e) (bagf) (.g3.e) | ca3(f3g) (e3f)d3B |\
(b3e)(g3e) (bagf) (g3e) | (.c3.a)(g3f) ge3 [e2B2] ||
(ga) |\
(b3e)(g3e) .b.a.g.f .e.d.c.B | ca3(f3g) (e3f)d3B |\
(c3a) (B3g) (A3f) (G3e) | (.F3.E)(F3G) EE3 "Segue Reel."[E2B,2] "^D.C."|]

%%sep 2 1 500

